src/assets/images/ngrx-logo.svg

<?xml version="1.0" encoding="UTF-8"?>
<svg width="1000px" height="1000px" viewBox="0 0 1000 1000" version="1.1" xmlns="http://www.w3.org/2000/svg" xmlns:xlink="http://www.w3.org/1999/xlink">
    <!-- Generator: Sketch 51.1 (57501) - http://www.bohemiancoding.com/sketch -->
    <title>badge</title>
    <desc>Created with Sketch.</desc>
    <defs></defs>
    <g id="badge" stroke="none" stroke-width="1" fill="none" fill-rule="evenodd">
        <polygon id="Path-2" fill="#412846" points="500.96252 11 44 169.619503 109.419009 775.863609 500.96252 989.147518"></polygon>
        <polygon id="Path-2" fill="#4B314F" points="499 11 955.96252 169.619503 890.543511 775.863609 499 989.147518"></polygon>
        <path d="M727.748042,345.712306 L727.66634,345.452948 C748.53141,368.675743 759.248655,396.250955 759.818077,428.178583 C760.387499,460.10621 749.670253,493.785553 727.419362,529.113702 C744.049216,516.186231 763.254044,488.280572 784.970754,445.720993 C794.352489,531.973497 759.496406,597.488822 680.07676,642.358274 C705.433171,640.019987 739.098221,623.326102 780.852373,592.218304 C736.295204,699.492316 654.368246,756.091448 535.071499,762.0157 C419.779066,761.984828 345.090509,692.70063 345.149347,692.744623 C297.749003,655.853422 265.136294,609.356006 247.420657,553.461194 C219.071352,522.501468 218.788687,519.181412 215.864399,506.810213 C212.94011,494.439015 217.711589,490.983038 226.016225,478.877684 C231.552649,470.807448 232.857288,459.198337 230.012754,444.257657 C222.955013,434.470009 218.890643,419.140866 217.819642,398.270229 C217.819642,388.184149 224.550937,377.542369 238.013526,366.344888 C251.476116,355.147407 259.735587,346.535764 262.727877,340.60672 C265.010137,337.374281 265.891913,323.360897 265.373204,298.56657 C265.233841,274.213659 278.755317,260.964316 305.93763,258.818543 C346.7111,255.599883 369.705986,224.934529 382.516256,210.988846 C391.056436,201.691724 403.695194,197.172941 419.636711,197.086041 C442.079696,196.034098 462.499977,204.637166 480.091445,222.390999 C523.906033,220.124746 568.786858,231.940816 614.26226,257.53906 C678.886453,295.927519 714.155144,337.500002 720.068335,382.04686 C713.141516,440.672126 634.388911,439.139539 484.158007,377.434888 C405.540854,399.703741 366.890462,447.959933 368.174379,522.203462 C368.120638,590.331666 401.093921,639.837612 466.867448,670.671325 C434.809471,639.197634 421.156861,612.743966 425.754563,590.835913 C492.434057,669.802565 568.387234,699.317583 653.4812,679.387085 C615.964887,680.696908 586.248445,668.625202 563.883439,642.99059 C621.400796,641.592694 675.697848,614.89246 726.828497,562.61827 C697.312743,586.105598 666.427352,594.999478 633.726894,589.404987 C722.294422,519.773811 753.634804,438.542918 727.748042,345.712306 Z M567,335 C574.179702,335 580,329.179702 580,322 C580,314.820298 574.179702,309 567,309 C559.820298,309 554,314.820298 554,322 C554,329.179702 559.820298,335 567,335 Z" id="Combined-Shape" fill="#BA2BD2"></path>
    </g>
</svg>

<svg width="1000" height="1000" xmlns="http://www.w3.org/2000/svg"><g fill="none" fill-rule="evenodd"><path fill="#412846" d="M500.963 11 44 169.62l65.419 606.244 391.544 213.284z"/><path fill="#4B314F" d="m499 11 456.963 158.62-65.42 606.244L499 989.148z"/><path d="m727.748 345.712-.082-.26c20.865 23.224 31.583 50.799 32.152 82.727.57 31.927-10.148 65.607-32.399 100.935 16.63-12.928 35.835-40.833 57.552-83.393 9.381 86.252-25.475 151.768-104.894 196.637 25.356-2.338 59.021-19.032 100.775-50.14-44.557 107.274-126.484 163.873-245.78 169.798-115.293-.031-189.981-69.315-189.923-69.271-47.4-36.892-80.013-83.389-97.728-139.284-28.35-30.96-28.632-34.28-31.557-46.65-2.924-12.372 1.848-15.828 10.152-27.933 5.537-8.07 6.841-19.68 3.997-34.62-7.058-9.788-11.122-25.117-12.193-45.988 0-10.086 6.73-20.728 20.194-31.925 13.462-11.198 21.722-19.81 24.714-25.738 2.282-3.233 3.164-17.246 2.645-42.04-.14-24.353 13.382-37.603 40.565-39.748 40.773-3.22 63.768-33.884 76.578-47.83 8.54-9.297 21.18-13.816 37.12-13.903 22.444-1.052 42.864 7.551 60.455 25.305 43.815-2.266 88.696 9.55 134.171 35.148 64.624 38.389 99.893 79.961 105.806 124.508-6.926 58.625-85.68 57.093-235.91-4.612-78.617 22.269-117.268 70.525-115.984 144.768-.053 68.129 32.92 117.635 98.693 148.468-32.058-31.473-45.71-57.927-41.112-79.835 66.68 78.967 142.632 108.482 227.726 88.551-37.516 1.31-67.233-10.762-89.598-36.396 57.518-1.398 111.815-28.099 162.945-80.373-29.515 23.488-60.4 32.381-93.101 26.787 88.567-69.631 119.908-150.862 94.021-243.693ZM567 335c7.18 0 13-5.82 13-13s-5.82-13-13-13-13 5.82-13 13 5.82 13 13 13Z" fill="#BA2BD2"/></g></svg>
